packages/kaspersky-hexa-ui-icons/src/iconsSVGs/16/FilterWithIndicator.svg

<svg width="16" height="16" viewBox="0 0 16 16" fill="none" xmlns="http://www.w3.org/2000/svg">
<path d="M8.05424 1.04993L4.21716 1.04993C2.53564 1.04993 1.54126 2.93326 2.48964 4.32181L5.90117 9.31677V12.8506C5.90117 14.01 6.84107 14.9499 8.00049 14.9499C9.15992 14.9499 10.0998 14.01 10.0998 12.8506V9.31673L11.7787 6.85862C11.3391 6.75173 10.9222 6.58673 10.5366 6.37221L8.91306 8.74934C8.83928 8.85736 8.79981 8.98513 8.79981 9.11594V12.8506C8.79981 13.2921 8.44195 13.6499 8.00049 13.6499C7.55904 13.6499 7.20117 13.2921 7.20117 12.8506V9.11598C7.20117 8.98517 7.1617 8.8574 7.08793 8.74938L3.56315 3.58861C3.20411 3.06293 3.58056 2.34993 4.21716 2.34993H7.97616C7.96816 2.23431 7.9641 2.11762 7.9641 1.99998C7.9641 1.67513 7.99508 1.35751 8.05424 1.04993Z" fill="black"/>
</svg>

<svg xmlns="http://www.w3.org/2000/svg" width="16" height="16" fill="none" viewBox="0 0 16 16"><path fill="#000" d="M8.054 1.05H4.217c-1.6816 0-2.676 1.8833-1.7276 3.2718l3.4115 4.995v3.5338c0 1.1595.94 2.0994 2.0993 2.0994 1.1595 0 2.0994-.9399 2.0994-2.0994V9.3168l1.6788-2.4582a4.97 4.97 0 0 1-1.242-.4864L8.9128 8.7494a.65.65 0 0 0-.1132.3666v3.7346a.7994.7994 0 1 1-1.5987 0V9.116a.65.65 0 0 0-.1132-.3666L3.5629 3.5886c-.359-.5256.0174-1.2386.654-1.2386h3.759A5 5 0 0 1 7.964 2c0-.3248.031-.6425.0901-.95"/></svg>
